assets/Bridge at night/Flat/bridge_at_night_flat.svg

<svg width="32" height="32" viewBox="0 0 32 32" fill="none" xmlns="http://www.w3.org/2000/svg">
<path d="M6 2C3.79086 2 2 3.79086 2 6V13.8244L2.30124 14.2448L2 14.7218V18.145L2.67816 19.0464L2 19.8448V24H30V19.7433L29.4269 19.0464L30 18.4016V14.6954L29.4888 14.1061L30 13.7511V6C30 3.79086 28.2091 2 26 2H6Z" fill="#533566"/>
<path d="M2 22V26C2 26.7969 2.23306 27.5395 2.63475 28.1631C9 27.9121 25.0096 28.1631 29.3891 28.1255C29.7755 27.5108 29.9992 26.7835 30 26.0039L30 26L30 22C29.3038 22 28.9308 22.2154 28.5309 22.4462C28.0692 22.7128 27.5718 23 26.5 23C25.4282 23 24.9308 22.7128 24.4691 22.4462C24.0692 22.2154 23.6961 22 23 22C22.25 22 21.75 22.25 21.25 22.5C20.75 22.75 20.25 23 19.5 23C18.75 23 18.25 22.75 17.75 22.5C17.25 22.25 16.75 22 16 22C15.25 22 14.75 22.25 14.25 22.5C13.75 22.75 13.25 23 12.5 23C11.75 23 11.25 22.75 10.75 22.5C10.25 22.25 9.75 22 9 22C8.25 22 7.75 22.25 7.25 22.5C6.75 22.75 6.25 23 5.5 23C4.75 23 4.25 22.75 3.75 22.5C3.25 22.25 2.75 22 2 22Z" fill="#468CFB"/>
<path d="M14.5 8.50001C16.1569 8.50001 17.5 7.15686 17.5 5.50001C17.5 5.0598 17.4052 4.64174 17.2349 4.26514C18.2758 4.73586 19 5.78336 19 7.00001C19 8.65686 17.6569 10 16 10C14.7834 10 13.7359 9.27576 13.2651 8.23488C13.6417 8.4052 14.0598 8.50001 14.5 8.50001Z" fill="#FCD53F"/>
<path d="M2 14.7529V13.7122C3.8212 13.1499 4.99348 11.8429 5.75249 10.5035C6.25795 9.6115 6.57247 8.71472 6.76043 8.03805C6.85415 7.70068 6.91571 7.42054 6.95361 7.22646C6.97254 7.12948 6.98553 7.05417 6.99364 7.00416C6.99674 6.98503 6.99913 6.9696 7.00087 6.9581C7.02283 6.42525 7.46176 6 8 6C8.53825 6 8.97718 6.42525 8.99914 6.9581C9.00088 6.96961 9.00326 6.98503 9.00637 7.00416C9.01448 7.05417 9.02747 7.12948 9.0464 7.22646C9.0843 7.42054 9.14586 7.70068 9.23957 8.03805C9.42754 8.71472 9.74205 9.6115 10.2475 10.5035C11.2544 12.2803 12.9885 14 16 14C19.0115 14 20.7456 12.2803 21.7525 10.5035C22.258 9.6115 22.5725 8.71472 22.7604 8.03805C22.8541 7.70068 22.9157 7.42054 22.9536 7.22646C22.9725 7.12948 22.9855 7.05417 22.9936 7.00416C22.9967 6.98502 22.9991 6.9696 23.0009 6.9581C23.0228 6.42525 23.4618 6 24 6C24.5383 6 24.9772 6.42526 24.9991 6.95812L25.0064 7.00416C25.0145 7.05417 25.0275 7.12948 25.0464 7.22646C25.0843 7.42054 25.1459 7.70068 25.2396 8.03805C25.4275 8.71472 25.7421 9.6115 26.2475 10.5035C27.0065 11.8429 28.1788 13.1499 30 13.7122V14.7529C29.2449 14.5555 28.5816 14.2498 28 13.8729V18H30V20H25V26H23V20H9V26H7V20H2V18H4V13.8729C3.41838 14.2498 2.7551 14.5555 2 14.7529ZM22.6225 10.9965C22.2121 11.7208 21.6807 12.4527 21 13.0891V18H23V10.2663C22.8868 10.5069 22.7613 10.7516 22.6225 10.9965ZM20 13.8729C19.4184 14.2498 18.7551 14.5555 18 14.7529V18H20V13.8729ZM17 14.9415C16.6809 14.9798 16.3478 15 16 15C15.6522 15 15.3191 14.9798 15 14.9415V18H17V14.9415ZM14 14.7529C13.2449 14.5555 12.5816 14.2498 12 13.8729V18H14V14.7529ZM11 13.0891C10.3193 12.4527 9.7879 11.7208 9.37749 10.9965C9.23869 10.7516 9.11325 10.5069 9 10.2663V18H11V13.0891ZM25 18H27V13.0891C26.3193 12.4527 25.7879 11.7208 25.3775 10.9965C25.2387 10.7516 25.1133 10.5069 25 10.2663V18ZM7 18V10.2663C6.88676 10.5069 6.76132 10.7516 6.62252 10.9965C6.21211 11.7208 5.68075 12.4527 5 13.0891V18H7Z" fill="#F92F60"/>
<path d="M6 26C5.44772 26 5 26.4477 5 27V29H11V27C11 26.4477 10.5523 26 10 26H6ZM22 26C21.4477 26 21 26.4477 21 27V29H27V27C27 26.4477 26.5523 26 26 26H22Z" fill="#E6E6E6"/>
<path d="M6.00001 30H26C27.4991 30 28.8055 29.1754 29.4905 27.9551C29.0961 27.88 28.8205 27.721 28.5309 27.5538C28.0692 27.2872 27.5718 27 26.5 27C25.4282 27 24.9308 27.2872 24.4691 27.5538C24.0692 27.7846 23.6962 28 23 28C22.3039 28 21.9308 27.7846 21.5309 27.5538C21.0692 27.2872 20.5718 27 19.5 27C18.4282 27 17.9308 27.2872 17.4691 27.5538C17.0692 27.7846 16.6962 28 16 28C15.25 28 14.75 27.75 14.25 27.5C13.75 27.25 13.25 27 12.5 27C11.75 27 11.25 27.25 10.75 27.5C10.25 27.75 9.75001 28 9.00001 28C8.25001 28 7.75001 27.75 7.25001 27.5C6.75001 27.25 6.25001 27 5.50001 27C4.75001 27 4.25001 27.25 3.75001 27.5C3.3729 27.6886 2.99579 27.8771 2.51141 27.9584C3.19692 29.1769 4.50234 30 6.00001 30Z" fill="#00A6ED"/>
</svg>

<svg xmlns="http://www.w3.org/2000/svg" width="32" height="32" fill="none"><path fill="#533566" d="M6 2a4 4 0 0 0-4 4v7.824l.301.42-.301.478v3.423l.678.901-.678.799V24h28v-4.257l-.573-.697.573-.644v-3.707l-.511-.589.511-.355V6a4 4 0 0 0-4-4H6Z"/><path fill="#468CFB" d="M2 22v4c0 .797.233 1.54.635 2.163 6.365-.25 22.375 0 26.754-.038.387-.614.61-1.341.611-2.121V22c-.696 0-1.07.215-1.47.446-.46.267-.958.554-2.03.554-1.072 0-1.57-.287-2.03-.554-.4-.23-.774-.446-1.47-.446-.75 0-1.25.25-1.75.5s-1 .5-1.75.5-1.25-.25-1.75-.5-1-.5-1.75-.5-1.25.25-1.75.5-1 .5-1.75.5-1.25-.25-1.75-.5-1-.5-1.75-.5-1.25.25-1.75.5-1 .5-1.75.5-1.25-.25-1.75-.5-1-.5-1.75-.5Z"/><path fill="#FCD53F" d="M14.5 8.5a3 3 0 0 0 2.735-4.235 3 3 0 1 1-3.97 3.97c.377.17.795.265 1.235.265Z"/><path fill="#F92F60" d="M2 14.753v-1.04c1.821-.563 2.993-1.87 3.752-3.21.506-.892.82-1.788 1.008-2.465A10.781 10.781 0 0 0 7 6.958a1 1 0 0 1 2 0 4.153 4.153 0 0 0 .046.268c.038.195.1.475.194.812.188.677.502 1.573 1.008 2.466C11.254 12.28 12.988 14 16 14c3.012 0 4.746-1.72 5.753-3.496.505-.893.82-1.79 1.007-2.466a10.793 10.793 0 0 0 .234-1.034L23 6.958a1 1 0 0 1 1.998 0l.007.046c.009.05.021.125.04.222.038.195.1.475.194.812.188.677.502 1.573 1.008 2.466.758 1.339 1.93 2.646 3.752 3.208v1.04a6.834 6.834 0 0 1-2-.88V18h2v2h-5v6h-2v-6H9v6H7v-6H2v-2h2v-4.127a6.834 6.834 0 0 1-2 .88Zm20.622-3.757A8.782 8.782 0 0 1 21 13.09V18h2v-7.734c-.113.24-.239.486-.378.73ZM20 13.873a6.834 6.834 0 0 1-2 .88V18h2v-4.127Zm-3 1.069c-.32.038-.652.058-1 .058s-.68-.02-1-.059V18h2v-3.059Zm-3-.19a6.834 6.834 0 0 1-2-.88V18h2v-3.247Zm-3-1.663a8.782 8.782 0 0 1-1.623-2.093 10.87 10.87 0 0 1-.377-.73V18h2v-4.91ZM25 18h2v-4.91a8.782 8.782 0 0 1-1.622-2.094c-.14-.244-.265-.49-.378-.73V18ZM7 18v-7.734c-.113.24-.239.486-.377.73A8.78 8.78 0 0 1 5 13.09V18h2Z"/><path fill="#E6E6E6" d="M6 26a1 1 0 0 0-1 1v2h6v-2a1 1 0 0 0-1-1H6Zm16 0a1 1 0 0 0-1 1v2h6v-2a1 1 0 0 0-1-1h-4Z"/><path fill="#00A6ED" d="M6 30h20c1.5 0 2.805-.825 3.49-2.045-.394-.075-.67-.234-.96-.401-.46-.267-.958-.554-2.03-.554-1.072 0-1.57.287-2.03.554-.4.23-.774.446-1.47.446s-1.07-.215-1.47-.446c-.46-.267-.958-.554-2.03-.554-1.072 0-1.57.287-2.03.554-.4.23-.774.446-1.47.446-.75 0-1.25-.25-1.75-.5s-1-.5-1.75-.5-1.25.25-1.75.5-1 .5-1.75.5-1.25-.25-1.75-.5-1-.5-1.75-.5-1.25.25-1.75.5c-.377.189-.754.377-1.239.458A3.999 3.999 0 0 0 6 30Z"/></svg>
